X: 1
T:Bill Cheathams
R:Reel
O:USA
N:the 'chords' in bar 5 second part are alternative lines
M:C
K:D
A,B,DE F2DE| FDEF EDB,A,| B,2G2 G2DE| =FDEF EDB,D|
A,2^F2 F2DE| FDEF EDB,D| \
GFGA BcdB|1 AGFE D4 :|2 AGFE D2FG|:
AFAd BGBd| cABc d2Ac| dcdA BdAG| FAFD E2FG|
[AA][DF][FA][Ad] [BB][DG][GB][Bd]|cABc d2Ac|\
dcdA BdAG|1 F2E2 D2FG :|2 F2E2 D4|]
